polaris-icons/icons/newicons/AdjustMinor.svg

<svg width="20" height="20" viewBox="0 0 20 20" fill="none" xmlns="http://www.w3.org/2000/svg">
<path fill-rule="evenodd" clip-rule="evenodd" d="M10.0945 6.25C10.4275 4.95608 11.6021 4 13 4C14.3979 4 15.5725 4.95608 15.9055 6.25L17.25 6.25C17.6642 6.25 18 6.58579 18 7C18 7.41421 17.6642 7.75 17.25 7.75L15.9055 7.75C15.5725 9.04392 14.3979 10 13 10C11.6021 10 10.4275 9.04392 10.0945 7.75L2.75 7.75C2.33579 7.75 2 7.41421 2 7C2 6.58579 2.33579 6.25 2.75 6.25L10.0945 6.25ZM11.5 7C11.5 6.17157 12.1716 5.5 13 5.5C13.8284 5.5 14.5 6.17157 14.5 7C14.5 7.82843 13.8284 8.5 13 8.5C12.1716 8.5 11.5 7.82843 11.5 7Z" fill="black"/>
<path fill-rule="evenodd" clip-rule="evenodd" d="M7 16C8.39788 16 9.57245 15.0439 9.90549 13.75H17.25C17.6642 13.75 18 13.4142 18 13C18 12.5858 17.6642 12.25 17.25 12.25H9.90549C9.57245 10.9561 8.39788 10 7 10C5.60212 10 4.42755 10.9561 4.09451 12.25H2.75C2.33579 12.25 2 12.5858 2 13C2 13.4142 2.33579 13.75 2.75 13.75H4.09451C4.42755 15.0439 5.60212 16 7 16ZM8.5 13C8.5 13.8284 7.82843 14.5 7 14.5C6.17157 14.5 5.5 13.8284 5.5 13C5.5 12.1716 6.17157 11.5 7 11.5C7.82843 11.5 8.5 12.1716 8.5 13Z" fill="black"/>
</svg>

<svg viewBox="0 0 20 20" fill="none" xmlns="http://www.w3.org/2000/svg"><path fill-rule="evenodd" clip-rule="evenodd" d="M10.095 6.25a3.001 3.001 0 0 1 5.81 0h1.345a.75.75 0 0 1 0 1.5h-1.345a3.001 3.001 0 0 1-5.81 0h-7.345a.75.75 0 0 1 0-1.5h7.345Zm1.405.75a1.5 1.5 0 1 1 3 0 1.5 1.5 0 0 1-3 0Z" fill="#000"/><path fill-rule="evenodd" clip-rule="evenodd" d="M7 16a3.001 3.001 0 0 0 2.905-2.25h7.345a.75.75 0 0 0 0-1.5h-7.345a3.001 3.001 0 0 0-5.81 0h-1.345a.75.75 0 0 0 0 1.5h1.345a3.001 3.001 0 0 0 2.905 2.25Zm1.5-3a1.5 1.5 0 1 1-3 0 1.5 1.5 0 0 1 3 0Z" fill="#000"/></svg>
